packages/icon/src/svg/reload.icon.svg

<svg width="24" height="24" viewBox="0 0 24 24" fill="none" xmlns="http://www.w3.org/2000/svg">
<path d="M5.43167 16.5683L7.14645 14.8536C7.46143 14.5386 7.23835 14 6.79289 14H2.5C2.22386 14 2 14.2239 2 14.5V18.7929C2 19.2383 2.53857 19.4614 2.85355 19.1464L3.99953 18.0005C5.82396 20.4291 8.72848 22 11.9999 22C15.6087 22 18.7711 20.0883 20.5295 17.2224C20.674 16.9869 20.5838 16.6821 20.3412 16.5498L19.463 16.0708C19.2207 15.9386 18.9185 16.0287 18.7712 16.2621C17.3546 18.508 14.8515 20 11.9999 20C9.27998 20 6.87709 18.6426 5.43167 16.5683Z" fill="white"/>
<path d="M3.4703 6.77753C3.32579 7.01305 3.41608 7.31786 3.65866 7.45018L4.53688 7.92921C4.77915 8.06136 5.08138 7.97123 5.22861 7.73782C6.64524 5.49194 9.14834 4 11.9999 4C14.7199 4 17.1228 5.35742 18.5682 7.43179L16.8536 9.14645C16.5386 9.46143 16.7617 10 17.2071 10H21.5C21.7761 10 22 9.77614 22 9.5V5.20711C22 4.76165 21.4614 4.53857 21.1464 4.85355L20.0004 5.99964C18.1759 3.57095 15.2714 2 11.9999 2C8.39109 2 5.22876 3.91164 3.4703 6.77753Z" fill="white"/>
</svg>

<svg aria-label="reload icon" viewBox="0 0 24 24"><path d="M5.432 16.568l1.714-1.714A.5.5 0 006.793 14H2.5a.5.5 0 00-.5.5v4.293a.5.5 0 00.854.353L4 18a9.985 9.985 0 008 4 9.994 9.994 0 008.53-4.778.481.481 0 00-.189-.672l-.878-.48a.525.525 0 00-.692.192A7.994 7.994 0 0112 20a7.99 7.99 0 01-6.568-3.432zM3.47 6.778a.481.481 0 00.189.672l.878.48a.525.525 0 00.692-.192A7.994 7.994 0 0111.999 4a7.99 7.99 0 016.57 3.432l-1.715 1.714a.5.5 0 00.353.854H21.5a.5.5 0 00.5-.5V5.207a.5.5 0 00-.854-.353L20 6a9.985 9.985 0 00-8-4 9.994 9.994 0 00-8.53 4.778z"/></svg>
